X:7403
T:The Thatched Cabin
O:england
M:6/8
L:1/8
R:jig
D:Jackie Daly, "Many's a Wild Night", track 2(b)
K:D
B | "D" AFD DED | AFD D2 B | AFD DEF | "Em" GFG "A" EFG |
"D" AFD DED | DFA "G" d2 e | "D" fed "G" B/c/dB |
"D" AFD D2 :||
||: f | "D" afd ded | afd d2 f | afd def | "G" gfg "A" efg |
"D" a^ga "G" ba=g | "D" agf "A7" gfe | "D" fed "G" B/c/dB |
"D"AFD D2 :||


